packages/bezier-icons/icons/channel-btn.svg

<svg width="24" height="24" viewBox="0 0 24 24" fill="none" xmlns="http://www.w3.org/2000/svg">
<path fill-rule="evenodd" clip-rule="evenodd" d="M9.27925 3.25H14.7208C18.0496 3.25 20.749 5.9489 20.75 9.27925V9.27956V14.7208C20.75 18.0508 18.0508 20.75 14.7208 20.75H9.27925C5.94916 20.75 3.25 18.0508 3.25 14.7208V9.27925C3.25 5.94916 5.94916 3.25 9.27925 3.25ZM22 14.7208V9.27925C21.999 5.25881 18.7402 2 14.7208 2H9.27925C5.25881 2 2 5.25881 2 9.27925V14.7208C2 18.7412 5.25881 22 9.27925 22H14.7208C18.7412 22 22 18.7412 22 14.7208ZM17.2388 14.1981C17.0629 14.6176 17.0309 15.085 17.141 15.5271L17.4495 16.762C17.5549 17.1759 17.1786 17.554 16.7619 17.4496L15.5267 17.1411C15.0846 17.032 14.6171 17.063 14.1975 17.2389C13.5221 17.5229 12.7817 17.68 12.0028 17.68C8.87591 17.68 6.32001 15.1283 6.32001 12.0019C6.31813 8.86325 8.87591 6.31999 12.0028 6.31999C15.1297 6.31999 17.68 8.87547 17.68 12.0019C17.68 12.7797 17.5229 13.5199 17.2388 14.1962V14.1981ZM11.9972 15.1565C13.4374 15.1565 14.6914 14.3514 15.3311 13.1653C15.4026 13.0327 15.3555 12.8672 15.2248 12.7891L14.2079 12.1796C14.0649 12.094 13.8814 12.1524 13.8052 12.3C13.4675 12.9565 12.7846 13.4061 11.9953 13.4061C11.206 13.4061 10.5231 12.9565 10.1854 12.3C10.1082 12.1514 9.92763 12.094 9.78276 12.1796L8.76585 12.7891C8.63697 12.8672 8.58806 13.0327 8.65955 13.1653C9.29829 14.3504 10.5532 15.1565 11.9934 15.1565H11.9972Z" fill="#313234"/>
</svg>

<svg xmlns="http://www.w3.org/2000/svg" width="24" height="24" fill="none" viewBox="0 0 24 24"><path fill="#313234" fill-rule="evenodd" d="M9.28 3.25h5.44a6.03 6.03 0 0 1 6.03 6.03v5.44c0 3.33-2.7 6.03-6.03 6.03H9.28c-3.33 0-6.03-2.7-6.03-6.03V9.28c0-3.33 2.7-6.03 6.03-6.03M22 14.72V9.28A7.28 7.28 0 0 0 14.72 2H9.28A7.28 7.28 0 0 0 2 9.28v5.44C2 18.742 5.259 22 9.28 22h5.44c4.021 0 7.28-3.259 7.28-7.28m-4.761-.522c-.176.42-.208.887-.098 1.33l.309 1.234a.566.566 0 0 1-.688.688l-1.235-.309a2.13 2.13 0 0 0-1.33.098 5.65 5.65 0 0 1-2.194.441c-3.127 0-5.683-2.552-5.683-5.678-.002-3.139 2.556-5.682 5.683-5.682s5.677 2.555 5.677 5.682c0 .778-.157 1.518-.441 2.194zm-5.242.958c1.44 0 2.694-.805 3.334-1.99a.283.283 0 0 0-.106-.377l-1.017-.61a.29.29 0 0 0-.403.121 2.034 2.034 0 0 1-3.62 0 .287.287 0 0 0-.402-.12l-1.017.61a.284.284 0 0 0-.106.375 3.79 3.79 0 0 0 3.333 1.992z" clip-rule="evenodd"/></svg>
